src/cmd/lc_dataranges.svg

<svg viewBox="0 0 24 24" xmlns="http://www.w3.org/2000/svg"><path d="m13 4c-.684804-.0184653-1.327875.1347497-1.970703.2871094-1.0505233.3213512-1.8269495.85771-2.607422 1.4238281-.6918929.5679208-1.1189836 1.221922-1.5605469 1.9414063-.4146024.7099431-.6197323 1.6097974-.78125 2.3398437-.0003892.0026752-.0015668.0051362-.0019531.0078125-.049921.331036-.0760296.665227-.078125 1h1c.00196-.335258.0320098-.669762.0898438-1v-.0019531c.1030824-.7292222.4083855-1.3538814.7109374-1.9824219.0077601-.01305.0155756-.0260705.0234376-.0390625.3409689-.5838866.7774371-1.1012092 1.2851562-1.5351563.2568438-.2338225.574778-.4203547.8203125-.5898437.3073195-.1884224.6719655-.3320029.9570315-.4628906.327192-.1277878.698272-.2009953.992187-.2773438.02145-.00533.042943-.010535.064453-.015625.343812-.0616483.696939-.0953479 1.056641-.0957031v5 1h6c-.000317.207791-.013616.414507-.035156.619141-.0082.06133-.017284.12254-.027344.183593-.01938.141664-.039059.282564-.068359.421875-.498016 1.871009-1.431802 2.970593-2.869141 3.962891v1.126953c.71135-.322827 1.157594-.696047 1.734375-1.169922.300648-.276531.570907-.57946.816406-.90039.789722-.998815 1.172235-2.16653 1.394531-3.382813.0038-.03037.004413-.061337.007813-.091797.029788-.255445.045398-.512354.046875-.769531-.000303-.237455-.012689-.474739-.037109-.710938v-.003906c-.02322-.228662-.05687-.4541641-.101563-.675781l-.003906-.0195312c-.61868-2.7303952-2.553284-4.5727354-5.154297-5.3730469-.561225-.1578841-1.143991-.1830985-1.703125-.2167969zm-9 8v1 3 1 3 1h1 10v-1-7-1h-10zm1 1h4v3h-4zm5 0h4v3h-4zm-5 4h4v3h-4zm5 0h4v3h-4z" fill="#232629"/></svg>

<?xml version="1.0" encoding="UTF-8" standalone="no"?>
<svg
   xmlns:dc="http://purl.org/dc/elements/1.1/"
   xmlns:cc="http://creativecommons.org/ns#"
   xmlns:rdf="http://www.w3.org/1999/02/22-rdf-syntax-ns#"
   xmlns:svg="http://www.w3.org/2000/svg"
   xmlns="http://www.w3.org/2000/svg"
   xmlns:sodipodi="http://sodipodi.sourceforge.net/DTD/sodipodi-0.dtd"
   xmlns:inkscape="http://www.inkscape.org/namespaces/inkscape"
   viewBox="0 0 24 24"
   version="1.1"
   id="svg4"
   sodipodi:docname="lc_dataranges.svg"
   inkscape:version="0.92.4 (5da689c313, 2019-01-14)">
  <metadata
     id="metadata10">
    <rdf:RDF>
      <cc:Work
         rdf:about="">
        <dc:format>image/svg+xml</dc:format>
        <dc:type
           rdf:resource="http://purl.org/dc/dcmitype/StillImage" />
      </cc:Work>
    </rdf:RDF>
  </metadata>
  <defs
     id="defs8" />
  <sodipodi:namedview
     pagecolor="#ffffff"
     bordercolor="#666666"
     borderopacity="1"
     objecttolerance="10"
     gridtolerance="10"
     guidetolerance="10"
     inkscape:pageopacity="0"
     inkscape:pageshadow="2"
     inkscape:window-width="1920"
     inkscape:window-height="1011"
     id="namedview6"
     showgrid="true"
     inkscape:zoom="111.25147"
     inkscape:cx="8.497501"
     inkscape:cy="5.3016211"
     inkscape:window-x="1920"
     inkscape:window-y="32"
     inkscape:window-maximized="1"
     inkscape:current-layer="svg4">
    <inkscape:grid
       type="xygrid"
       id="grid817" />
  </sodipodi:namedview>
  <path
     d="M 13,4 C 12.315196,3.9815347 11.672125,4.1347497 11.029297,4.2871094 9.9787737,4.6084606 9.2023475,5.1448194 8.421875,5.7109375 7.7299821,6.2788583 7.3028914,6.9328595 6.8613281,7.6523438 6.4467257,8.3622869 6.2415958,9.2621412 6.0800781,9.9921875 6.0796889,9.9948627 6.0785113,9.9973237 6.078125,10 6.028204,10.331036 6.0020954,10.665227 6,11 H 7 C 7.00196,10.664742 7.03201,10.330238 7.089844,10 V 9.99805 C 7.1929262,9.2688247 7.4982293,8.6441655 7.8007812,8.015625 7.8085413,8.002575 7.8163568,7.9895545 7.8242188,7.9765625 8.1651877,7.3926759 8.6016559,6.8753533 9.109375,6.4414062 9.3662188,6.2075837 9.684153,6.0210515 9.9296875,5.8515625 10.237007,5.6631401 10.601653,5.5195596 10.886719,5.3886719 c 0.327192,-0.1277878 0.698272,-0.2009953 0.992187,-0.2773438 0.02145,-0.00533 0.04294,-0.010535 0.06445,-0.015625 C 12.287171,5.0340548 12.640298,5.0003552 13,5 v 5 1 h 6 c -3.17e-4,0.207791 -0.01362,0.414507 -0.03516,0.619141 -0.0082,0.06133 -0.01728,0.12254 -0.02734,0.183593 -0.01938,0.141664 -0.03906,0.282564 -0.06836,0.421875 C 18.371125,14.095618 17.437339,15.195202 16,16.1875 v 1.126953 c 0.71135,-0.322827 1.157594,-0.696047 1.734375,-1.169922 0.300648,-0.276531 0.570907,-0.57946 0.816406,-0.90039 0.789722,-0.998815 1.172235,-2.16653 1.394531,-3.382813 0.0038,-0.03037 0.0044,-0.06134 0.0078,-0.0918 C 19.982913,11.514086 19.998523,11.257177 20,11 19.999697,10.762545 19.98731,10.525261 19.96289,10.289062 v -0.0039 C 19.93967,10.0565 19.90602,9.8309979 19.861327,9.609381 L 19.857427,9.58985 C 19.238742,6.8594486 17.304138,5.0171084 14.703125,4.2167969 14.1419,4.0589128 13.559134,4.0336984 13,4 Z M 4,14 v 2 1 2 c 0,2 1,2 3,2 h 5 c 2,0 3,0 3,-2 v -5 c 0,-2 -1,-2 -3,-2 H 7 c -2,0 -3,0 -3,2 z m 3,-1 h 2 v 3 H 5 v -2 c 0,-1 1,-1 2,-1 z m 3,0 h 2 c 1,0 2,0 2,1 v 2 h -4 z m -5,4 h 4 v 3 H 7 C 6,20 5,20 5,19 Z m 5,0 h 4 v 2 c 0,0.85848 -1,1 -2,1 h -2 z"
     id="path2"
     inkscape:connector-curvature="0"
     style="fill:#232629"
     sodipodi:nodetypes="cccccccccccccccccccccccccccccccccccccccccccccccccccccccccccccccccccccccc" />
</svg>
